X:1
T:Title
%%score 1 { 2 | 3 }
L:1/8
Q:1/4=112
M:4/4
K:G
V:1 treble nm="Grand Piano, Soprano"
V:2 bass nm="Choir Pad, Boise, Elisha A. Hoffman"
V:3 bass 
V:1
 D2 D2- D/ z/ [DG] [DG]2 | [DG]2 [DG]2 [DG]4 | [DG]2 [FA]2- [FA][FA] [FA]2 | [FA]2 [FA]4 z2 | %4
w: By~Elisha~Albright~Hoffman,~1878 * * * *||||
 [GB]2 [Gd]2- [Gd][Gd] [Gd]2 | [Gd]2 [GB]2 [EG]4 | [CE]2 [B,D]2- [B,D][DG] [EG]2 | [EG]2 [DG]4 z2 | %8
w: ||||
 D2 [DG]2- [DG][DG] [DG]2 | [DG]2 [GB]4 z2 | G2 [FA]2- [FA][FA] [FA]2 | [GB]2 [FA]4 z2 | %12
w: ||||
 [GB]2 [Gd]2- [Gd][Gd] [Gd]2 | [Gd]2 [GB]2 [EG]4 | [CE]2 [B,D]2- [B,D][DG] [EG]2 | [EG]2 [DG]6- | %16
w: ||||
 [DG]2 z2 z4 |] %17
w: |
V:2
 B,2 B,2- B,B, B,2 | B,2 B,2 B,4 | B,2[K:treble] D2- DD D2 | D2 D4 z2 | D2 B,2- B,B, B,2 | %5
 B,2 D2 C4 | G,2 G,2- G,/ z/ B, C2 | C2 B,4 z2 | B,2 B,2- B,B, B,2 | B,2 D4 z2 | B,2 D2- DD D2 | %11
 D2 D4 z2 | B,2 B,2- B,B, B,2 | B,2 D2 C4 | G,2 G,2- G,/ z/ B, C2 | C2 B,6- | B,2 z2 z4 |] %17
V:3
 G,2 G,2- G,G, G,2 | G,2 G,2 G,4 | G,2 D,2- D,D, D,2 | D,2 D,4 z2 | G,2 G,2- G,G, G,2 | %5
 G,2 G,,2 C,4 | C,2 z2 z G, C,2 | C,2 G,,4 z2 | G,2 G,2- G,G, G,2 | G,2 G,4 z2 | %10
 G,2 D,2- D,D, D,2 | D,2 D,4 z2 | G,2 G,2- G,G, G,2 | G,2 G,,2 C,4 | C,2 z2 z G, C,2 | C,2 G,,6- | %16
 G,,2 z2 z4 |] %17

